public/avatar/hat/47.svg

<svg xmlns:xlink="http://www.w3.org/1999/xlink" height="92.9" width="100.7" xmlns="http://www.w3.org/2000/svg"><g transform="translate(38.65 49.75)"><use height="21.2" transform="translate(-15.8 -.2)" width="30.85" xlink:href="#a"/><use height="13.15" transform="translate(-19.45 9.85)" width="13.1" xlink:href="#b"/><use height="13.15" transform="matrix(-1 0 0 1 19.05 9.85)" width="13.1" xlink:href="#b"/><use height="26.15" transform="translate(-3.05 -16)" width="5.2" xlink:href="#c"/></g><defs><g id="f"><path d="m13.95 9.6-2.15.5q3.6 2.6-.8 1.7l.85 1.65q-2.9.4-5.5-.75-3.4-1.5-4.3-5.1v-.15q-.65-2.85 1-4.85l1.2-1.2 6.6 5.8 3.1 2.4m-10.9-7q3.35 6.95 8.75 7.5-5.4-.55-8.75-7.5m-1 4.85Q6.8 11.6 11 11.8q-4.2-.2-8.95-4.35" fill="url(#d)" fill-rule="evenodd" transform="translate(-1.35 -.9)"/><path d="M11.85 13.45q-2.9.4-5.5-.75-3.4-1.5-4.3-5.1v-.15q-.65-2.85 1-4.85l1.2-1.2 6.6 5.8 3.1 2.4" fill="none" stroke="#173e73" stroke-linecap="round" stroke-linejoin="round" transform="translate(-1.35 -.9)"/><path d="M11 11.8q-4.2-.2-8.95-4.35m9.75 2.65q-5.4-.55-8.75-7.5" fill="none" stroke="#379d6f" stroke-linecap="round" stroke-linejoin="round" transform="translate(-1.35 -.9)"/></g><g id="c"><path d="m-2.55 2.1 2.1-17.6 2.1 17.9-1.9 7.25-2.3-7.55" fill="#44bd97" fill-rule="evenodd" transform="translate(3.05 16)"/><path d="m-2.55 2.1 2.1-17.6 2.1 17.9-1.9 7.25-2.3-7.55Z" fill="none" stroke="#173e73" stroke-linecap="round" stroke-linejoin="round" transform="translate(3.05 16)"/></g><radialGradient cx="0" cy="0" gradientTransform="matrix(0 -.0133 .0193 0 -.25 9.65)" gradientUnits="userSpaceOnUse" id="e" r="819.2" spreadMethod="pad"><stop offset="0" stop-color="#a2f0c8"/><stop offset="1" stop-color="#1e553c"/></radialGradient><linearGradient gradientTransform="matrix(-.0039 -.0023 .0029 -.0051 9.3 7.4)" gradientUnits="userSpaceOnUse" id="d" spreadMethod="pad" x1="-819.2" x2="819.2"><stop offset="0" stop-color="#fff"/><stop offset="1" stop-color="#44bd97"/></linearGradient><path d="m-.1-.2 1.4.05q9.3.85 13.75 14.8Q13.2 19.5 7.6 21q1.85-3.1 1.75-7.45-.05-3.8-1.3-5.5-3.75-5.1-8.3 1.6l-.15-.2-.05-.1q-4.4-6.1-7.9-1.45-1.1 1.4-1.45 4.9-.5 4.8 2.1 8.2-5.65-1.1-8.1-6.4Q-11.2 1.4-2.15 0L-.1-.2" fill="url(#e)" fill-rule="evenodd" transform="translate(15.8 .2)" id="a"/><use height="13.15" width="13.1" xlink:href="#f" id="b"/></defs></svg>

<?xml version="1.0" encoding="UTF-8" standalone="no"?>
<svg xmlns:xlink="http://www.w3.org/1999/xlink" height="92.9px" width="100.7px" xmlns="http://www.w3.org/2000/svg">
  <g transform="matrix(1.0, 0.0, 0.0, 1.0, 38.65, 49.75)">
    <use height="21.2" transform="matrix(1.0, 0.0, 0.0, 1.0, -15.8, -0.2)" width="30.85" xlink:href="#shape0"/>
    <use height="13.15" transform="matrix(1.0, 0.0, 0.0, 1.0, -19.45, 9.85)" width="13.1" xlink:href="#sprite0"/>
    <use height="13.15" transform="matrix(-1.0, 0.0, 0.0, 1.0, 19.05, 9.85)" width="13.1" xlink:href="#sprite0"/>
    <use height="26.15" transform="matrix(1.0, 0.0, 0.0, 1.0, -3.05, -16.0)" width="5.2" xlink:href="#shape2"/>
  </g>
  <defs>
    <g id="shape0" transform="matrix(1.0, 0.0, 0.0, 1.0, 15.8, 0.2)">
      <path d="M-0.1 -0.2 L1.3 -0.15 Q10.6 0.7 15.05 14.65 13.2 19.5 7.6 21.0 9.45 17.9 9.35 13.55 9.3 9.75 8.05 8.05 4.3 2.95 -0.25 9.65 L-0.4 9.45 -0.45 9.35 Q-4.85 3.25 -8.35 7.9 -9.45 9.3 -9.8 12.8 -10.3 17.6 -7.7 21.0 -13.35 19.9 -15.8 14.6 -11.2 1.4 -2.15 0.0 L-0.1 -0.2" fill="url(#gradient0)" fill-rule="evenodd" stroke="none"/>
    </g>
    <radialGradient cx="0" cy="0" gradientTransform="matrix(0.0, -0.0133, 0.0193, 0.0, -0.25, 9.65)" gradientUnits="userSpaceOnUse" id="gradient0" r="819.2" spreadMethod="pad">
      <stop offset="0.0" stop-color="#a2f0c8"/>
      <stop offset="1.0" stop-color="#1e553c"/>
    </radialGradient>
    <g id="sprite0" transform="matrix(1.0, 0.0, 0.0, 1.0, -1.35, -0.9)">
      <use height="13.15" transform="matrix(1.0, 0.0, 0.0, 1.0, 1.35, 0.9)" width="13.1" xlink:href="#shape1"/>
    </g>
    <g id="shape1" transform="matrix(1.0, 0.0, 0.0, 1.0, -1.35, -0.9)">
      <path d="M13.95 9.6 L11.8 10.1 Q15.4 12.7 11.0 11.8 L11.85 13.45 Q8.95 13.85 6.35 12.7 2.95 11.2 2.05 7.6 L2.05 7.45 Q1.4 4.6 3.05 2.6 L4.25 1.4 10.85 7.2 13.95 9.6 M3.05 2.6 Q6.4 9.55 11.8 10.1 6.4 9.55 3.05 2.6 M2.05 7.45 Q6.8 11.6 11.0 11.8 6.8 11.6 2.05 7.45" fill="url(#gradient1)" fill-rule="evenodd" stroke="none"/>
      <path d="M11.85 13.45 Q8.95 13.85 6.35 12.7 2.95 11.2 2.05 7.6 L2.05 7.45 Q1.4 4.6 3.05 2.6 L4.25 1.4 10.85 7.2 13.95 9.6" fill="none" stroke="#173e73" stroke-linecap="round" stroke-linejoin="round" stroke-width="1.0"/>
      <path d="M11.0 11.8 Q6.8 11.6 2.05 7.45 M11.8 10.1 Q6.4 9.55 3.05 2.6" fill="none" stroke="#379d6f" stroke-linecap="round" stroke-linejoin="round" stroke-width="1.0"/>
    </g>
    <linearGradient gradientTransform="matrix(-0.0039, -0.0023, 0.0029, -0.0051, 9.3, 7.4)" gradientUnits="userSpaceOnUse" id="gradient1" spreadMethod="pad" x1="-819.2" x2="819.2">
      <stop offset="0.0" stop-color="#ffffff"/>
      <stop offset="1.0" stop-color="#44bd97"/>
    </linearGradient>
    <g id="shape2" transform="matrix(1.0, 0.0, 0.0, 1.0, 3.05, 16.0)">
      <path d="M-2.55 2.1 L-0.45 -15.5 1.65 2.4 -0.25 9.65 -2.55 2.1" fill="#44bd97" fill-rule="evenodd" stroke="none"/>
      <path d="M-2.55 2.1 L-0.45 -15.5 1.65 2.4 -0.25 9.65 -2.55 2.1 Z" fill="none" stroke="#173e73" stroke-linecap="round" stroke-linejoin="round" stroke-width="1.0"/>
    </g>
  </defs>
</svg>
